packages/strapi-icons/assets/icons/Grid.svg

<svg width="12" height="12" viewBox="0 0 12 12" fill="none" xmlns="http://www.w3.org/2000/svg">
<path d="M0.666667 5.33333H4.66667C4.84348 5.33333 5.01305 5.2631 5.13807 5.13807C5.2631 5.01305 5.33333 4.84348 5.33333 4.66667V0.666667C5.33333 0.489856 5.2631 0.320286 5.13807 0.195262C5.01305 0.0702379 4.84348 0 4.66667 0H0.666667C0.489856 0 0.320286 0.0702379 0.195262 0.195262C0.0702379 0.320286 0 0.489856 0 0.666667V4.66667C0 4.84348 0.0702379 5.01305 0.195262 5.13807C0.320286 5.2631 0.489856 5.33333 0.666667 5.33333ZM7.33333 5.33333H11.3333C11.5101 5.33333 11.6797 5.2631 11.8047 5.13807C11.9298 5.01305 12 4.84348 12 4.66667V0.666667C12 0.489856 11.9298 0.320286 11.8047 0.195262C11.6797 0.0702379 11.5101 0 11.3333 0H7.33333C7.15652 0 6.98695 0.0702379 6.86193 0.195262C6.73691 0.320286 6.66667 0.489856 6.66667 0.666667V4.66667C6.66667 4.84348 6.73691 5.01305 6.86193 5.13807C6.98695 5.2631 7.15652 5.33333 7.33333 5.33333ZM0.666667 12H4.66667C4.84348 12 5.01305 11.9298 5.13807 11.8047C5.2631 11.6797 5.33333 11.5101 5.33333 11.3333V7.33333C5.33333 7.15652 5.2631 6.98695 5.13807 6.86193C5.01305 6.73691 4.84348 6.66667 4.66667 6.66667H0.666667C0.489856 6.66667 0.320286 6.73691 0.195262 6.86193C0.0702379 6.98695 0 7.15652 0 7.33333V11.3333C0 11.5101 0.0702379 11.6797 0.195262 11.8047C0.320286 11.9298 0.489856 12 0.666667 12ZM7.33333 12H11.3333C11.5101 12 11.6797 11.9298 11.8047 11.8047C11.9298 11.6797 12 11.5101 12 11.3333V7.33333C12 7.15652 11.9298 6.98695 11.8047 6.86193C11.6797 6.73691 11.5101 6.66667 11.3333 6.66667H7.33333C7.15652 6.66667 6.98695 6.73691 6.86193 6.86193C6.73691 6.98695 6.66667 7.15652 6.66667 7.33333V11.3333C6.66667 11.5101 6.73691 11.6797 6.86193 11.8047C6.98695 11.9298 7.15652 12 7.33333 12Z" fill="#8E8EA9"/>
</svg>

<svg width="12" height="12" viewBox="0 0 12 12" fill="none"
xmlns="http://www.w3.org/2000/svg"><path d="M.67 5.33h4a.67.67 0 0 0
.66-.66v-4A.67.67 0 0 0 4.67 0h-4A.67.67 0 0 0 0 .67v4a.67.67 0 0 0 .67.66Zm6.66
0h4a.67.67 0 0 0 .67-.66v-4a.67.67 0 0 0-.67-.67h-4a.67.67 0 0 0-.66.67v4a.67.67
0 0 0 .66.66ZM.67 12h4a.67.67 0 0 0 .66-.67v-4a.67.67 0 0 0-.66-.66h-4a.67.67 0
0 0-.67.66v4a.67.67 0 0 0 .67.67Zm6.66 0h4a.67.67 0 0 0 .67-.67v-4a.67.67 0 0
0-.67-.66h-4a.67.67 0 0 0-.66.66v4a.67.67 0 0 0 .66.67Z" fill="#8E8EA9"/></svg>
